X: 4041
T: Captain Byng's Reel
C: By Nath. Gow
%R: reel
B: Niel Gow & Sons "A Fourth Collection of Strathspey Reels, etc." v.4 p.4 #1
Z: 2022 John Chambers <jc:trillian.mit.edu>
M: C|
L: 1/8
K: G
% - - - - - - - - - -
V: 1 staves=2
(g |\
f)dgd BGGB | cAag fdd(g | f)dgd BGGB | cAdB G2-G :| (c | B)>GdG BGG(B | c)>AeA cAA(c |
B)>GdG BGGB | cAdB G2-G(c || B)>GdG BGG(B | c)AeA cAA(c | B)>GdB ecdB | cAd>B G2-G |]
% - - - - - - - - - -
% Voice 2 preserves the staff layout in the book.
V: 2 clef=bass middle=d
z | g2g2 g2g2 | a2a2 a2a2 | g2g2 g2B2 | c2d2 G2G :| z |\
[g2G2][g2G2] [g2G2][g2G2] | [a2A2][a2A2] [a2A2][a2A2] |
[g2G2][g2G2] [g2G2][B2B,2] | [c2C2][d2D2] G2G2 ||\
[g2G2][g2G2] [g2G2][g2G2] | [a2A2][a2A2] [a2A2][a2A2] |\
[g2G2][g2G2] [c2C2][B2B,2] | [c2C2][d2D2] G2G |]


